X: 37558
T: Small By Name
R: jig
M: 6/8
K: Dmajor
|:G3 AGA|Bee dBA|BdF F2B|AFE DB,A,|
G3 AGA|Bee dBA|BdF F (3dcB|1 AFD E2D:|2 AFD Eef||
|:gee e2g|fdB B2c|d3 ede|fbb afd|
gee gee|fdB B2c|ded cBA|1 BGE Eef:|2 BGE E2D||
|:B,EE GED|B,EE E2F|GFG A2G|FDD AFD|
B,EE GED|B,EE E2G|Bcd cBA|1 AGE E2D:|2 AGE Eef||
|:gee gee|fdB B2c|d3 ede|fbb afd|
gee gee|fdB B2c|ded cBA|1 BGE Eef:|2 BGE E3||

